home/.icons/Gruvbox-Plus-Dark/status/24/changes-allow.svg

<svg xmlns="http://www.w3.org/2000/svg" width="24" height="24" version="1">
 <path d="m 12,2.5 c -2.982464,0 -5.4359589,2.1562262 -5.9101562,5 H 8.1386719 C 8.5823641,5.7737034 10.13145,4.5 12,4.5 c 2.216,0 4,1.784 4,4 v 2 h 2 v -2 c 0,-3.324 -2.676,-6 -6,-6 z" style="opacity:0.2"/>
 <path style="fill:#ebdbb2" d="M 12 2 C 9.017536 2 6.5640411 4.1562262 6.0898438 7 L 8.1386719 7 C 8.5823641 5.2737034 10.13145 4 12 4 C 14.216 4 16 5.784 16 8 L 16 10 L 18 10 L 18 8 C 18 4.676 15.324 2 12 2 z"/>
 <rect style="fill:#fe3c38" width="12" height="16" x="-22" y="-20" rx="1" ry="1" transform="matrix(0,-1,-1,0,0,0)"/>
 <path style="opacity:0.2;fill:#ebdbb2" d="M 12 2 C 9.017536 2 6.5640411 4.1562262 6.0898438 7 L 6.1953125 7 C 6.8591229 4.4080099 9.195375 2.5 12 2.5 C 15.324 2.5 18 5.176 18 8.5 L 18 8 C 18 4.676 15.324 2 12 2 z"/>
 <path style="opacity:0.2;fill:#ebdbb2" d="m 5,10 c -0.554,0 -1,0.446 -1,1 v 0.5 c 0,-0.554 0.446,-1 1,-1 h 14 c 0.554,0 1,0.446 1,1 V 11 c 0,-0.554 -0.446,-1 -1,-1 z"/>
 <rect style="fill:#fe6a6a" width="16" height="7" x="4" y="12" rx="0" ry="0"/>
 <path style="opacity:0.2" d="m 4,21 v 0.5 c 0,0.554 0.446,1 1,1 h 14 c 0.554,0 1,-0.446 1,-1 V 21 c 0,0.554 -0.446,1 -1,1 H 5 C 4.446,22 4,21.554 4,21 Z"/>
</svg>

<svg width="24" height="24" version="1" xmlns="http://www.w3.org/2000/svg">
  <path d="m12 2.5c-2.9825 0-5.436 2.1562-5.9102 5h2.0488c0.44369-1.7263 1.9928-3 3.8613-3 2.216 0 4 1.784 4 4v2h2v-2c0-3.324-2.676-6-6-6zm-8 18.5v0.5c0 0.554 0.446 1 1 1h14c0.554 0 1-0.446 1-1v-0.5c0 0.554-0.446 1-1 1h-14c-0.554 0-1-0.446-1-1z" fill="#282828" opacity=".2"/>
  <path d="m12 2c-2.9825 0-5.436 2.1562-5.9102 5h2.0488c0.44369-1.7263 1.9928-3 3.8613-3 2.216 0 4 1.784 4 4v2h2v-2c0-3.324-2.676-6-6-6z" fill="#ebdbb2"/>
  <rect transform="matrix(0,-1,-1,0,0,0)" x="-22" y="-20" width="12" height="16" rx="1" ry="1" fill="#cc241d"/>
  <path d="m12 2c-2.9825 0-5.436 2.1562-5.9102 5h0.10547c0.66381-2.592 3.0001-4.5 5.8047-4.5 3.324 0 6 2.676 6 6v-0.5c0-3.324-2.676-6-6-6z" fill="#fbf1c7" opacity=".3"/>
  <path d="m5 10c-0.554 0-1 0.446-1 1v0.5c0-0.554 0.446-1 1-1h14c0.554 0 1 0.446 1 1v-0.5c0-0.554-0.446-1-1-1z" fill="#ebdbb2" opacity=".2"/>
  <rect x="4" y="12" width="16" height="7" rx="0" ry="0" fill="#fb4934"/>
</svg>
